public/images/facilities/coach_station_chongqing.svg

<?xml version="1.0" encoding="UTF-8"?>
<svg id="_图层_1" data-name="图层 1" width="10" height="10" xmlns="http://www.w3.org/2000/svg" version="1.1" viewBox="0 0 8.2062992 3.784252">
  <defs>
    <style>
      .cls-1 {
        fill: #231815;
        fill-rule: evenodd;
        stroke-width: 0px;
      }
    </style>
  </defs>
  <path class="cls-1" d="M1.9945068,3.1303113c0,.3586044-.2908936.6452026-.6471558.6452026-.3600464,0-.6508179-.2865982-.6508179-.6452026,0-.8551941,1.2979736-.8551941,1.2979736,0M6.8655396,2.4835141c.3582764,0,.6469116.2901993.6469116.6511002,0,.3580017-.2886353.6504974-.6469116.6504974-.3586426,0-.6508179-.2924957-.6508179-.6504974,0-.3609009.2921753-.6511002.6508179-.6511002ZM5.7175293,2.9481138v-.9909973h-3.2564087v.9869995l3.2564087.0039978ZM3.9385376,2.7737134v-.4948959c0-.1026001-.1154175-.1080017-.1921997-.1134033v.7202988c.0952148,0,.1921997.0054016.1921997-.1119995ZM3.680542,2.8857129l.0033569-.7148972-.1532593.0054016v-.1318054h-.3875122v.1171036h-.1591187v.7208023l.6965332.0033951ZM3.2380371,2.1031125h.2088623v.0623016h-.2088623v-.0623016ZM2.7374268,2.7737134v-.4948959c0-.1080017.0949707-.1080017.1939087-.1134033l-.0042114.7202988c-.1057739,0-.1896973.0108032-.1896973-.1119995ZM5.4468384,2.7737134v-.4948959c0-.1026001-.1097412-.1080017-.1901855-.1134033l.0036621.7202988c.0856323,0,.1865234.0054016.1865234-.1119995ZM5.1982422,2.8823179v-.7115021h-.1610107l.001709-.1297989h-.3858032v.1204987h-.1588135l-.0018921.7167969.7058105.0040054ZM4.7483521,2.1031125h.208374v.0623016h-.208374v-.0623016ZM4.2474365,2.7737134v-.4948959c0-.1026001.1187744-.1080017.1900024-.1134033v.7202988c-.0913086,0-.1900024.0054016-.1900024-.1119995ZM8.2057495,3.1672147V.4244169C8.2057495.1228116,8.2111206.0000165,7.8894043.0000165H.4291992C.2322388.0000165,0-.0069873,0,.2674115v2.8924026h.5209961c.0715332-.4773026.369751-.8406982.8481445-.8226013.4978027.0238037.7426758.376503.7976685.8484039h3.8432007c.0842285-.5870056.3837891-.8963013.9649048-.8484039.475708.0475998.6478271.3694.7280273.8410034l.5028076-.0110016ZM6.2206421,1.3754132V.4352124h1.5845947l.0076904.9402008h-1.5922852ZM4.2380981,1.3919156V.4352124h1.619751l-.0088501.9567032h-1.6109009ZM2.2910156,1.3919156l-.0108032-.9567032h1.6228027l.0023193.9567032h-1.6143188ZM1.9528198,1.3919156l-1.5888062-.0039978-.0020142-.9451065,1.5964966.007103-.0056763.9420013Z"/>
</svg>

<svg xmlns="http://www.w3.org/2000/svg" width="10" height="10" data-name="图层 1" viewBox="0 0 8.206 3.784">
  <path d="M1.995 3.13c0 .359-.291.646-.648.646a.646.646 0 0 1-.65-.646c0-.855 1.298-.855 1.298 0m4.87-.646c.359 0 .647.29.647.65a.649.649 0 1 1-1.297 0 .65.65 0 0 1 .65-.65m-1.147.464v-.99H2.46v.986zm-1.78-.174v-.495c0-.103-.115-.108-.192-.114v.72c.096 0 .193.006.193-.111m-.257.112.003-.715-.153.005v-.132h-.388v.118h-.159v.72zm-.443-.783h.209v.062h-.209zm-.5.67V2.28c0-.108.094-.108.193-.114l-.004.72c-.106 0-.19.012-.19-.111m2.709 0V2.28c0-.103-.11-.108-.19-.114l.003.72c.086 0 .187.006.187-.111m-.249.11V2.17h-.16v-.13h-.385v.12h-.159l-.002.717zm-.45-.78h.209v.062h-.209zm-.5.67V2.28c0-.103.118-.108.19-.114v.72c-.092 0-.19.006-.19-.111m3.958.394V.424C8.206.123 8.21 0 7.889 0H.43C.232 0 0-.007 0 .267V3.16h.521c.072-.477.37-.84.848-.823.498.024.743.377.798.849H6.01c.084-.587.384-.897.965-.849.476.048.648.37.728.841zM6.22 1.375v-.94h1.584l.008.94zm-1.983.017V.435h1.62l-.009.957zm-1.947 0-.01-.957h1.622l.002.957zm-.338 0L.364 1.388.362.443 1.958.45z" style="fill:#231815;fill-rule:evenodd;stroke-width:0"/>
</svg>
